modules/micon/icons/PuncKey3.svg

<svg xmlns="http://www.w3.org/2000/svg" viewBox="0 0 2491 1024"><path d="M1969.5 511h521.5v47.5h-521.5v-47.5zm-976.5 129v-48h521.5v48h-521.5zm-710-382v253h238.5v47.5h-238.5v252h-44.5v-252h-238.5v-47.5h238.5v-253h44.5zm710 211.5v-47.5h521.5v47.5h-521.5z"/></svg>

<svg xmlns="http://www.w3.org/2000/svg" viewBox="0 0 2491 1024"><path d="M1969.5 511H2491v47.5h-521.5V511zM993 640v-48h521.5v48H993zM283 258v253h238.5v47.5H283v252h-44.5v-252H0V511h238.5V258H283zm710 211.5V422h521.5v47.5H993z"/></svg>
